!!!COM:	Bach, Johann Sebastian
!!!CDT:	1685/02/21/-1750/07/28/
!!!OTL@@DE:	Freu dich sehr, o meine Seele
!!!SCT:	BWV 30/6
!!!PC#:	76
!!!AGN:	chorale
**kern	**kern	**kern	**kern
*ICvox	*ICvox	*ICvox	*ICvox
*Ibass	*Itenor	*Ialto	*Isoprn
*I"Bass	*I"Tenor	*I"Alto	*I"Soprano
*>[A,A,B]	*>[A,A,B]	*>[A,A,B]	*>[A,A,B]
*>norep[A,B]	*>norep[A,B]	*>norep[A,B]	*>norep[A,B]
*>A	*>A	*>A	*>A
*clefF4	*clefGv2	*clefG2	*clefG2
*k[f#]	*k[f#]	*k[f#]	*k[f#]
*G:	*G:	*G:	*G:
*M4/4	*M4/4	*M4/4	*M4/4
*met(c)	*met(c)	*met(c)	*met(c)
*MM100	*MM100	*MM100	*MM100
=1-	=1-	=1-	=1-
4GG	4B	4d	4g
4FF#	4d	4d	4a
4GG	8dL	4g	4b
.	8eJ	.	.
4AA	8eL	4c#	4a
.	8f#J	.	.
=2	=2	=2	=2
8BBL	8BL	8dL	4g
8C#J	8AJ	8eJ	.
4D	4A	8eL	4f#
.	.	8dJ	.
4GG	4B	4d	2e
4AA	8AL	4c#	.
.	8GJ	.	.
=3	=3	=3	=3
2DD;	2F#;	2A;	2d;
4EE	4B	4e	4g
4FF#	4A	8eL	4a
.	.	8dJ	.
=4	=4	=4	=4
4GG	8AL	4d	4b
.	8GJ	.	.
4AA	8GL	4a	4cc
.	8F#J	.	.
8BBL	4d	8aL	4b
8CJ	.	8gJ	.
4D	8dL	8gL	4a
.	8cJ	8f#J	.
=5	=5	=5	=5
1GG;	1B;	1d;	1g;
=6:|!	=6:|!	=6:|!	=6:|!
*>B	*>B	*>B	*>B
4GG	4d	4g	4b
4AA	4A	8gL	4cc
.	.	8fJ	.
4BB	8AL	4f	4dd
.	8G#J	.	.
8CL	4A	8eL	4cc
8DJ	.	8f#J	.
=7	=7	=7	=7
4E	8E	4g#	4b
.	4e	.	.
4F	.	8aL	4a
.	8d	8AJ	.
2E;	2G#;	2e;	2b;
=8	=8	=8	=8
8BBL	8GnXL	4d	4dd
8AAJ	8AJ	.	.
4GG	4B	8gL	4dd
.	.	8fJ	.
4C	8BL	4e	4ee
.	8AJ	.	.
4D	8AL	4f#	4dd
.	8BJ	.	.
=9	=9	=9	=9
8EL	8BL	8g	4cc
8F#J	8AJ	4d	.
4G	8BL	.	4b
.	8c#J	8e	.
2D;	2d;	2f#;	2a;
=10	=10	=10	=10
4G	4d	4g	8bL
.	.	.	8ccJ
8GL	4d	4a	4dd
8F#J	.	.	.
4E	8GL	4g	4cc
.	8AJ	.	.
4D#	4B	4f#	8bL
.	.	.	8aJ
=11	=11	=11	=11
8EL	4B	8f#L	4g
8DnXJ	.	8eJ	.
4C	8cL	8eL	4a
.	8AJ	8f#J	.
8GGL	4.e	4g	2b
8AAJ	.	.	.
4BB	.	4f#	.
.	8d#	.	.
=12	=12	=12	=12
2EE;	2B;	2e;	2g;
4EE	4e	4g#	8bL
.	.	.	8ccJ
8FF#L	8AL	8aL	4dd
8GG#J	8BJ	8eJ	.
=13	=13	=13	=13
4AA	4c	8eL	4cc
.	.	8f#J	.
8BBL	4d	4gnX	4b
8CJ	.	.	.
8DL	4d	4f#	4a
8CJ	.	.	.
8BBL	4d	[4g	8.bL
8GGJ	.	.	.
.	.	.	16ccJk
=14	=14	=14	=14
4D	4.d	8gL]	2a
.	.	16f#L	.
.	.	16eJJ	.
4DD	.	4f#	.
.	8c	.	.
2GG;	2B;	2d;	2g;
==	==	==	==
*-	*-	*-	*-
!!!hum2abc: -Q ''
!!!title: @{PC#}. @{OTL@@DE}
!!!YOR1: 371 vierstimmige Choralges&auml;nge von Johann Sebastian Bach, 
!!!YOR2: 4th ed. by Alfred D&ouml;rffel (Leipzig: Breitkopf und H&auml;rtel, 
!!!YOR2: c.1875). 178 pp. Plate "V.A.10".  reprint: J.S. Bach, 371 Four-Part 
!!!YOR4: Chorales (New York: Associated Music Publishers, Inc., c.1940).
!!!SMS: B&H, 4th ed, Alfred D&ouml;rffel, c.1875, plate V.A.10
!!!EED:  Craig Stuart Sapp
!!!EEV:  2009/05/22
